X: 38231
T: Squire Woods Lamentation On Refusal Of His Halfpence
R: reel
M: 4/4
K: Gmajor
M:2/4
|:(G/A/)|B/c/B/A/ Bg|d/c/B/d/ B(A/G/)|d/e/d/^c/ d(g/f/)|e/^d/e/g/ A(g/f/)|
e/d/c/B/ d/c/B/A/|c/B/A/G/ A(G/E/)|G/F/G/A/ B/G/d/B/|A/^G/A/B/ =G:|
|:d|e/^d/e/f/ gG|g/a/b/g/ e>d|Bd e/f/g/f/|e/d/^c/e/ d(B/d/)|
e/f/g/a/ g/f/e/f/|g/a/b/g/ e>d|B/A/B/c/ d/c/d/e/|B/d/e/f/ g(e/f/)|
g(e/g/) e/d/e/g/|d/B/d/e/ d/c/B/A/|G(g/e/) d/g/d/B/|A/^G/A/B/ =G:|

